austria/municipalities/70909.svg

<?xml version="1.0" encoding="UTF-8"?>
<!DOCTYPE svg PUBLIC "-//W3C//DTD SVG 1.1//EN" "http://www.w3.org/Graphics/SVG/1.1/DTD/svg11.dtd">
<svg xmlns="http://www.w3.org/2000/svg" version="1.1" width="166px" height="192px" style="shape-rendering:geometricPrecision; text-rendering:geometricPrecision; image-rendering:optimizeQuality; fill-rule:evenodd; clip-rule:evenodd" xmlns:xlink="http://www.w3.org/1999/xlink">
<g><path style="opacity:1" fill="#110906" d="M -0.5,-0.5 C 54.8333,-0.5 110.167,-0.5 165.5,-0.5C 165.5,39.8333 165.5,80.1667 165.5,120.5C 156.462,160.54 131.795,184.206 91.5,191.5C 84.8333,191.5 78.1667,191.5 71.5,191.5C 30.4766,182.81 6.47657,157.81 -0.5,116.5C -0.5,77.5 -0.5,38.5 -0.5,-0.5 Z"/></g>
<g><path style="opacity:1" fill="#d63023" d="M 3.5,3.5 C 56.1667,3.5 108.833,3.5 161.5,3.5C 161.667,41.8348 161.5,80.1681 161,118.5C 154.29,156.876 131.79,179.71 93.5,187C 55.1718,190.091 27.3385,174.591 10,140.5C 6.98601,132.766 4.98601,124.766 4,116.5C 3.50001,78.8348 3.33335,41.1681 3.5,3.5 Z"/></g>
<g><path style="opacity:1" fill="#171210" d="M 22.5,21.5 C 63.1721,21.1668 103.839,21.5001 144.5,22.5C 142.847,44.1762 140.514,65.6762 137.5,87C 138.642,109.553 140.142,132.053 142,154.5C 140.839,156.665 139.006,157.665 136.5,157.5C 132.07,156.881 127.737,155.881 123.5,154.5C 122.808,153.975 122.308,153.308 122,152.5C 122.7,129.167 122.533,105.834 121.5,82.5C 120.389,68.8379 119.389,55.1712 118.5,41.5C 97.4974,41.3334 76.4974,41.5 55.5,42C 47.3593,44.8074 41.8593,50.3074 39,58.5C 37.7133,66.7805 37.2133,75.1139 37.5,83.5C 32.226,84.8868 27.3927,87.2201 23,90.5C 22.5,67.5024 22.3334,44.5024 22.5,21.5 Z"/></g>
<g><path style="opacity:1" fill="#f7f7f7" d="M 23.5,22.5 C 63.1667,22.5 102.833,22.5 142.5,22.5C 140.648,36.4259 139.648,50.4259 139.5,64.5C 133.242,64.8097 127.076,64.4764 121,63.5C 120.5,55.8406 120.334,48.1739 120.5,40.5C 98.1642,40.3334 75.8308,40.5 53.5,41C 43.4231,45.6464 37.5898,53.4797 36,64.5C 35.4835,70.2182 35.4835,75.8849 36,81.5C 31.9619,83.1024 28.1286,85.1024 24.5,87.5C 23.5003,65.8436 23.167,44.1769 23.5,22.5 Z"/></g>
<g><path style="opacity:1" fill="#fcfcfb" d="M 122.5,65.5 C 127.5,65.5 132.5,65.5 137.5,65.5C 135.704,93.4088 136.704,121.242 140.5,149C 140.333,150.833 140.167,152.667 140,154.5C 135.216,155.397 130.383,155.231 125.5,154C 124.667,153.167 123.833,152.333 123,151.5C 123.815,122.837 123.648,94.1707 122.5,65.5 Z"/></g>
<g><path style="opacity:1" fill="#1c1513" d="M 82.5,48.5 C 84.0174,48.5106 85.1841,49.1772 86,50.5C 86.4955,52.4727 86.6621,54.4727 86.5,56.5C 89.1268,56.2933 90.7935,57.46 91.5,60C 89.9219,61.9716 89.0885,64.1383 89,66.5C 94.616,65.1188 96.2827,67.1188 94,72.5C 91.6667,74.0062 89.5,75.6729 87.5,77.5C 89.7368,78.1321 91.4035,79.4654 92.5,81.5C 89.8414,84.3291 87.3414,87.3291 85,90.5C 83.6323,93.7383 83.2989,97.0717 84,100.5C 86.8421,96.6437 88.5087,92.3103 89,87.5C 91.4541,85.987 93.1207,86.6537 94,89.5C 94.2117,86.2423 94.7117,83.0757 95.5,80C 97.3668,79.2888 98.8668,79.7888 100,81.5C 100.412,77.9932 102.245,75.6599 105.5,74.5C 106.719,75.2634 107.719,76.2634 108.5,77.5C 111.604,74.6118 114.271,74.9451 116.5,78.5C 115.167,80.1667 113.833,81.8333 112.5,83.5C 114.8,85.8283 114.8,87.995 112.5,90C 110.5,90 108.5,90 106.5,90C 106.353,91.9742 106.019,93.9742 105.5,96C 103.432,96.6869 101.432,96.5202 99.5,95.5C 98.7379,96.6283 98.0712,97.7949 97.5,99C 94.8333,99 92.1667,99 89.5,99C 87.9632,100.11 87.2965,101.61 87.5,103.5C 100.539,102.038 107.206,107.872 107.5,121C 107.354,126.083 106.188,130.916 104,135.5C 99.6667,143.167 95.3333,150.833 91,158.5C 89.3972,164.59 89.8972,170.59 92.5,176.5C 84.7366,177.204 78.5699,174.204 74,167.5C 67.5231,155.546 61.8564,143.212 57,130.5C 54.3647,115.377 60.0314,105.71 74,101.5C 71.6587,99.2276 68.992,98.8942 66,100.5C 64.1878,100.507 62.6878,99.84 61.5,98.5C 60.1491,101.196 58.3157,103.53 56,105.5C 55,104.5 54,103.5 53,102.5C 52.1057,105.785 50.939,108.951 49.5,112C 47.255,111.805 45.4216,110.638 44,108.5C 43.501,112.821 43.3343,117.154 43.5,121.5C 41.0637,121.683 38.897,121.016 37,119.5C 35.7777,124.084 32.9444,126.25 28.5,126C 27.3855,123.899 27.3855,121.733 28.5,119.5C 27.4187,117.789 26.0854,116.289 24.5,115C 24.6667,114.5 24.8333,114 25,113.5C 27.5829,112.126 30.0829,110.626 32.5,109C 29.1102,107.994 28.1102,105.994 29.5,103C 32.9083,102.02 36.2417,100.853 39.5,99.5C 38.5,98.1667 37.5,96.8333 36.5,95.5C 36.9767,94.5224 37.6433,93.6891 38.5,93C 43.0461,94.0074 47.7128,94.8407 52.5,95.5C 52.3796,93.8014 52.0463,92.1347 51.5,90.5C 52.3483,88.2388 54.015,87.2388 56.5,87.5C 60.9523,87.791 64.619,89.6243 67.5,93C 71.4457,93.533 74.6124,95.3663 77,98.5C 77.3417,94.655 75.5084,92.3217 71.5,91.5C 68.8805,87.8334 69.5471,84.6668 73.5,82C 66.8687,80.7733 65.8687,77.7733 70.5,73C 69.1428,69.9572 67.8095,66.9572 66.5,64C 67.569,59.8741 69.7357,59.3741 73,62.5C 74.7862,56.8833 77.9528,52.2166 82.5,48.5 Z"/></g>
<g><path style="opacity:1" fill="#f6f6f5" d="M 104.5,76.5 C 106.048,76.8212 106.715,77.8212 106.5,79.5C 108.675,79.3178 110.675,78.6511 112.5,77.5C 113.167,77.8333 113.833,78.1667 114.5,78.5C 113.352,80.1487 112.019,81.6487 110.5,83C 111.26,84.4411 111.926,85.9411 112.5,87.5C 109.914,88.48 107.247,88.8134 104.5,88.5C 104.808,90.924 104.474,93.2573 103.5,95.5C 101.382,94.0541 99.0488,93.3874 96.5,93.5C 96.5,94.8333 96.5,96.1667 96.5,97.5C 93.462,96.4744 90.462,96.3077 87.5,97C 88.9141,93.9446 90.0807,90.7779 91,87.5C 91.4505,90.1059 92.9505,91.4392 95.5,91.5C 95.3354,88.4816 95.502,85.4816 96,82.5C 97.6134,81.3777 98.7801,81.8777 99.5,84C 100.167,84.6667 100.833,84.6667 101.5,84C 102.069,81.2849 103.069,78.7849 104.5,76.5 Z"/></g>
<g><path style="opacity:1" fill="#fcfbfb" d="M 82.5,50.5 C 84.3435,52.2789 85.0102,54.6122 84.5,57.5C 86.7144,57.2907 88.381,58.124 89.5,60C 87.5129,62.4763 86.5129,65.3097 86.5,68.5C 88.8056,68.0074 91.139,67.6741 93.5,67.5C 93.6495,68.552 93.4828,69.552 93,70.5C 90.6667,72.5 88.3333,74.5 86,76.5C 85.3333,77.5 85.3333,78.5 86,79.5C 87.5095,80.0897 89.0095,80.7564 90.5,81.5C 83.4752,87.5523 80.3086,95.2189 81,104.5C 80.2508,100.749 79.2508,97.082 78,93.5C 75.4562,91.9975 73.2895,90.1642 71.5,88C 72.7558,86.1551 73.7558,84.1551 74.5,82C 73.1041,80.2443 71.4374,78.7443 69.5,77.5C 70.7113,76.1255 71.7113,74.6255 72.5,73C 71.2842,70.0704 69.9509,67.2371 68.5,64.5C 68.8333,63.8333 69.1667,63.1667 69.5,62.5C 74.418,66.8058 76.5847,65.4725 76,58.5C 78.4145,55.986 80.5812,53.3194 82.5,50.5 Z"/></g>
<g><path style="opacity:1" fill="#f7f7f7" d="M 53.5,89.5 C 55.8568,89.3367 58.1902,89.5034 60.5,90C 64.6988,93.5424 69.3654,96.2091 74.5,98C 71.8624,97.1999 69.1958,97.3665 66.5,98.5C 64.8957,98.0609 63.3957,97.3943 62,96.5C 59.3151,98.1748 57.3151,100.508 56,103.5C 55.2817,100.766 53.7817,100.1 51.5,101.5C 50.1844,104.384 49.1844,107.384 48.5,110.5C 46.9916,107.582 44.8249,106.916 42,108.5C 41.7208,112.17 41.8875,115.837 42.5,119.5C 40.1806,118.833 37.8473,118.666 35.5,119C 30.365,127.887 28.5317,127.054 30,116.5C 28.9326,115.809 27.7659,115.309 26.5,115C 28.5482,113.319 30.7148,111.819 33,110.5C 33.1482,108.068 32.4815,106.068 31,104.5C 34.5501,103.617 37.8834,102.284 41,100.5C 40.9725,98.5826 40.1392,96.916 38.5,95.5C 38.8333,95.1667 39.1667,94.8333 39.5,94.5C 44.0283,96.2809 48.695,96.7809 53.5,96C 54.3331,93.9189 54.3331,91.7522 53.5,89.5 Z"/></g>
<g><path style="opacity:1" fill="#fdfdfd" d="M 85.5,100.5 C 86.4511,101.919 86.7845,103.585 86.5,105.5C 98.8574,103.155 105.191,108.155 105.5,120.5C 105.462,124.985 104.629,129.319 103,133.5C 98.5868,141.995 93.9201,150.328 89,158.5C 88.3127,164.204 88.4793,169.87 89.5,175.5C 83.5612,174.439 78.7278,171.439 75,166.5C 70.0609,156.955 65.3942,147.289 61,137.5C 55.2747,126.714 56.4414,116.881 64.5,108C 68.8708,106.228 73.3708,105.061 78,104.5C 79.0793,106.394 80.4126,106.727 82,105.5C 82.3333,106.167 82.6667,106.833 83,107.5C 84.2886,105.355 85.1219,103.022 85.5,100.5 Z"/></g>
<g><path style="opacity:1" fill="#fdfdfd" d="M -0.5,116.5 C 6.47657,157.81 30.4766,182.81 71.5,191.5C 47.5,191.5 23.5,191.5 -0.5,191.5C -0.5,166.5 -0.5,141.5 -0.5,116.5 Z"/></g>
<g><path style="opacity:1" fill="#fdfdfd" d="M 165.5,120.5 C 165.5,144.167 165.5,167.833 165.5,191.5C 140.833,191.5 116.167,191.5 91.5,191.5C 131.795,184.206 156.462,160.54 165.5,120.5 Z"/></g>
</svg>

<svg xmlns="http://www.w3.org/2000/svg" width="166" height="192" style="shape-rendering:geometricPrecision;text-rendering:geometricPrecision;image-rendering:optimizeQuality;fill-rule:evenodd;clip-rule:evenodd"><path style="opacity:1" fill="#110906" d="M-.5-.5h166v121c-9.038 40.04-33.705 63.706-74 71h-20c-41.023-8.69-65.023-33.69-72-75V-.5z"/><path style="opacity:1" fill="#d63023" d="M3.5 3.5h158c.167 38.335 0 76.668-.5 115-6.71 38.376-29.21 61.21-67.5 68.5-38.328 3.091-66.162-12.409-83.5-46.5a97.7 97.7 0 0 1-6-24c-.5-37.665-.667-75.332-.5-113z"/><path style="opacity:1" fill="#171210" d="M22.5 21.5c40.672-.333 81.339 0 122 1a1008.886 1008.886 0 0 1-7 64.5 2114.582 2114.582 0 0 0 4.5 67.5c-1.161 2.165-2.994 3.165-5.5 3a75.646 75.646 0 0 1-13-3 4.457 4.457 0 0 1-1.5-2 942.89 942.89 0 0 0-.5-70 2536.755 2536.755 0 0 1-3-41c-21.003-.167-42.003 0-63 .5-8.14 2.807-13.64 8.307-16.5 16.5a132.887 132.887 0 0 0-1.5 25 41.78 41.78 0 0 0-14.5 7c-.5-22.998-.667-45.998-.5-69z"/><path style="opacity:1" fill="#f7f7f7" d="M23.5 22.5h119a345.888 345.888 0 0 0-3 42 88.658 88.658 0 0 1-18.5-1c-.5-7.66-.666-15.326-.5-23-22.336-.167-44.67 0-67 .5C43.423 45.646 37.59 53.48 36 64.5a93.448 93.448 0 0 0 0 17 62.87 62.87 0 0 0-11.5 6c-1-21.656-1.333-43.323-1-65z"/><path style="opacity:1" fill="#fcfcfb" d="M122.5 65.5h15a417.06 417.06 0 0 0 3 83.5l-.5 5.5c-4.784.897-9.617.731-14.5-.5l-2.5-2.5c.815-28.663.648-57.33-.5-86z"/><path style="opacity:1" fill="#1c1513" d="M82.5 48.5c1.517.01 2.684.677 3.5 2 .496 1.973.662 3.973.5 6 2.627-.207 4.293.96 5 3.5-1.578 1.972-2.412 4.138-2.5 6.5 5.616-1.381 7.283.619 5 6a49.075 49.075 0 0 0-6.5 5c2.237.632 3.903 1.965 5 4a99.005 99.005 0 0 0-7.5 9c-1.368 3.238-1.701 6.572-1 10 2.842-3.856 4.509-8.19 5-13 2.454-1.513 4.12-.846 5 2a51.676 51.676 0 0 1 1.5-9.5c1.867-.711 3.367-.211 4.5 1.5.412-3.507 2.245-5.84 5.5-7a9.433 9.433 0 0 1 3 3c3.104-2.888 5.771-2.555 8 1l-4 5c2.3 2.328 2.3 4.495 0 6.5h-6a34.468 34.468 0 0 1-1 6c-2.068.687-4.068.52-6-.5a26.61 26.61 0 0 0-2 3.5h-8c-1.537 1.11-2.204 2.61-2 4.5 13.039-1.462 19.706 4.372 20 17.5a35.677 35.677 0 0 1-3.5 14.5l-13 23c-1.603 6.09-1.103 12.09 1.5 18-7.763.704-13.93-2.296-18.5-9a309.264 309.264 0 0 1-17-37c-2.635-15.123 3.031-24.79 17-29-2.341-2.272-5.008-2.606-8-1-1.812.007-3.312-.66-4.5-2a22.11 22.11 0 0 1-5.5 7l-3-3a57.756 57.756 0 0 1-3.5 9.5c-2.245-.195-4.078-1.362-5.5-3.5a84.94 84.94 0 0 0-.5 13c-2.436.183-4.603-.484-6.5-2-1.222 4.584-4.056 6.75-8.5 6.5-1.114-2.101-1.114-4.267 0-6.5a18.511 18.511 0 0 0-4-4.5l.5-1.5a84.664 84.664 0 0 0 7.5-4.5c-3.39-1.006-4.39-3.006-3-6a93.241 93.241 0 0 0 10-3.5l-3-4a7.253 7.253 0 0 1 2-2.5 175.137 175.137 0 0 0 14 2.5 20.228 20.228 0 0 0-1-5c.848-2.261 2.515-3.261 5-3 4.452.291 8.119 2.124 11 5.5 3.946.533 7.112 2.366 9.5 5.5.342-3.845-1.492-6.178-5.5-7-2.62-3.667-1.953-6.833 2-9.5-6.631-1.227-7.631-4.227-3-9-1.357-3.043-2.69-6.043-4-9 1.069-4.126 3.236-4.626 6.5-1.5 1.786-5.617 4.953-10.283 9.5-14z"/><path style="opacity:1" fill="#f6f6f5" d="M104.5 76.5c1.548.321 2.215 1.321 2 3a13.14 13.14 0 0 0 6-2l2 1a25.534 25.534 0 0 1-4 4.5 37.151 37.151 0 0 1 2 4.5 16.868 16.868 0 0 1-8 1 13.115 13.115 0 0 1-1 7c-2.118-1.446-4.451-2.113-7-2v4c-3.038-1.026-6.038-1.192-9-.5a63.23 63.23 0 0 0 3.5-9.5c.45 2.606 1.95 3.94 4.5 4a40.936 40.936 0 0 1 .5-9c1.613-1.122 2.78-.622 3.5 1.5.667.667 1.333.667 2 0 .569-2.715 1.569-5.215 3-7.5z"/><path style="opacity:1" fill="#fcfbfb" d="M82.5 50.5c1.844 1.779 2.51 4.112 2 7 2.214-.21 3.881.624 5 2.5-1.987 2.476-2.987 5.31-3 8.5a51.639 51.639 0 0 1 7-1 4.932 4.932 0 0 1-.5 3l-7 6c-.667 1-.667 2 0 3 1.51.59 3.01 1.256 4.5 2-7.025 6.052-10.191 13.719-9.5 23a82.108 82.108 0 0 0-3-11c-2.544-1.502-4.71-3.336-6.5-5.5a25.266 25.266 0 0 0 3-6 20.456 20.456 0 0 0-5-4.5 19.955 19.955 0 0 0 3-4.5 99.875 99.875 0 0 0-4-8.5l1-2c4.918 4.306 7.085 2.972 6.5-4a61.455 61.455 0 0 0 6.5-8z"/><path style="opacity:1" fill="#f7f7f7" d="M53.5 89.5c2.357-.163 4.69.003 7 .5 4.199 3.542 8.865 6.21 14 8-2.638-.8-5.304-.633-8 .5a16.238 16.238 0 0 1-4.5-2c-2.685 1.675-4.685 4.008-6 7-.718-2.734-2.218-3.4-4.5-2a44.757 44.757 0 0 0-3 9c-1.508-2.918-3.675-3.584-6.5-2-.28 3.67-.112 7.337.5 11a16.597 16.597 0 0 0-7-.5c-5.135 8.887-6.968 8.054-5.5-2.5a11.339 11.339 0 0 0-3.5-1.5 48.247 48.247 0 0 1 6.5-4.5c.148-2.432-.519-4.432-2-6a38.948 38.948 0 0 0 10-4c-.028-1.917-.86-3.584-2.5-5l1-1c4.528 1.78 9.195 2.28 14 1.5.833-2.081.833-4.248 0-6.5z"/><path style="opacity:1" fill="#fdfdfd" d="M85.5 100.5c.951 1.419 1.284 3.085 1 5 12.357-2.345 18.691 2.655 19 15a36.368 36.368 0 0 1-2.5 13 456.153 456.153 0 0 1-14 25 56.723 56.723 0 0 0 .5 17c-5.939-1.061-10.772-4.061-14.5-9a579.322 579.322 0 0 1-14-29c-5.725-10.786-4.559-20.619 3.5-29.5a52.64 52.64 0 0 1 13.5-3.5c1.08 1.894 2.413 2.227 4 1l1 2a18.895 18.895 0 0 0 2.5-7zM-.5 116.5c6.977 41.31 30.977 66.31 72 75h-72v-75zM165.5 120.5v71h-74c40.295-7.294 64.962-30.96 74-71z"/></svg>
